X: 24
M: none
L: 1/8
K: D
|: vA(uAAF) ABd(uB | AF)vFuD vE2(uFG) | vA(uAAF) ABd(ue | fa)fe d2[f2d2] :|
|: ve(uAcA) ve(uAcA) | ABde f2(uaf) | ve(uAcA) ve(uAcA) | ve(ugfe) d2d2 :|
da smuggling a tobacca an speerits it guid on in yun days.

aff wi dat.


